X: 1046
T: Hicazkâr Aranağme
C: Muallim İsmail Hakkı Bey
O: Turkey
F: http://compmusic.upf.edu/node/140
N: hicazkar--aranagme--aksak--1--muallim_ismail_hakki_bey
N: makam= hicazkar
N: form= aranagme
N: usul= aksak = 9/8
M: 9/8
L: 1/16
K: C _1/4B _7/8e _7/8A ^f
Q: 1/4=156
%%MIDI tuningsystem comma53
g4 gfg=a _b2a2 g2f2 e2 | g4fe dcfg =afg4z2  | 
w:   |   | 
gfg=a _b2a2 g2f2 e2d2 c2 | e2 dce2 dcBc dBc4z2  | 
w:   |   | 
g4 gfg=a _b2a2 g2f2 e2 | g4fe dcfg =afg4z2  | 
w:   |   | 
gfg=a _b2a2 g2f2 e2d2 c2 | e2 dce2 dcBc dBc4z2  | 
w:   |   | 
cggg g2=f2 e2f2 g2a2 _b2 | a2 g=f_e2 d2cB ced4z2  | 
w:   |   | 
cBcd e2d2 c2B2 c2g2 g2 | fe dcB2 c2BA AGGA Bcd2  | 
w:   |   | 
cggg g2=f2 e2f2 g2a2 _b2 | a2 g=f_e2 d2cB ced4z2  | 
w:   |   | 
cBcd e2d2 c2B2 c2g2 g2 | fe dcB2 c2BA AGG4z2  | 
w:   |   | 
BcBA Bcde dcBA GABc d2 | Bc BABc dedc BA.G2 .G2.G2  | 
w:   |   | 
BcBA Bcde dcBA GABc d2 | Bc BABc dedc BA.G2 .G2.G2  | 
w:   |   | 
gag=f g2z2 gag^f gaga g=f | ga agg=f f_2/4eed dcg4z2  | 
w:   |   | 
gaag =f2_3/4e2 d2c2 a2g2 f2 | =f3ee3dcd efg4z2  | 
w:   |   | 
gag=f g2z2 gag^f gaga g=f | ga agg=f f_2/4eed dcg4z2  | 
w:   |   | 
gaag =f2_3/4e2 d2c2 a2g2 f2 | =f3ee3dcB ced4z2  | 
w:   |   | 
Bcd_2/4e =f2e2 f2e2 f2e2 g2 | =f3_3/4ed2 _7/8e2dc cBB4z2  | 
w:   |   | 
BcBA G2A2 B2c2 d2c2 d2 | B2 AGd2 cBBA AGG4z2  | 
w:   |   | 
Bcd_2/4e =f2e2 f2e2 f2e2 g2 | =f3_3/4ed2 _7/8e2dc cBB4z2  | 
w:   |   | 
BcBA G2A2 B2c2 d2c2 d2 | B2 AGd2 cBBA AGG4f2  | 
w:   |   | 
|


